X:1
T: Kilmarnock Bonnet
C:
R:Jig
Q:180
K:G
M:6/8
L:1/16
d2|d4d2e4d2|d4B2G4B2|d4c2E4F2|G6G4D2|G2G2G2G4G2|G4G2G4B2|d4d2c4B2|A6A4d2|
d4d2e4d2|d4B2G4B2|d4c2E4F2|G4F2E4D2|G4G2G4G2|G4e2d4B2|A6A6|G6G4d2|
d4d2e4d2|d4B2G4B2|d4c2E4F2|G6G4D2|G2G2G2G4G2|G4G2G4B2|d4d2c4B2|A6A4d2|
d4d2e4d2|d4B2G4B2|d4c2E4F2|G4F2E4D2|G4G2G4G2|G4e2d4B2|A6A6|G6F4E2||
